ui/StatusQ/src/assets/img/icons/github.svg

<svg fill="none" height="22" viewBox="0 0 22 22" width="22" xmlns="http://www.w3.org/2000/svg"><g stroke="#939ba1" stroke-linecap="round" stroke-linejoin="round" stroke-width="1.5"><path d="m7.21875 20.625c.54701 0 1.07161-.2173 1.45841-.6041.38679-.3868.60409-.9114.60409-1.4584v-4.125"/><path d="m14.7812 20.625c-.547 0-1.0716-.2173-1.4584-.6041s-.604-.9114-.604-1.4584v-4.125"/><path d="m13.0625 14.4375h1.375c.547 0 1.0716.2173 1.4584.6041s.6041.9114.6041 1.4584v.6875c0 .547.2173 1.0716.6041 1.4584s.9114.6041 1.4584.6041"/><path d="m8.9375 14.4375h-1.375c-.54701 0-1.07161.2173-1.45841.6041-.38679.3868-.60409.9114-.60409 1.4584v.6875c0 .547-.2173 1.0716-.60409 1.4584-.3868.3868-.9114.6041-1.45841.6041"/><path d="m9.60996 5.49994c-.40386-.63258-.96065-1.15316-1.61892-1.51364s-1.39678-.54923-2.14729-.5488c-.33399.57721-.5343 1.22196-.58618 1.88681s.04599 1.33288.28639 1.95491c-.47039.6924-.72494 1.50873-.73146 2.34578v.6875c0 1.094.4346 2.1432 1.20818 2.9168.77359.7736 1.8228 1.2082 2.91682 1.2082h4.125c1.094 0 2.1432-.4346 2.9168-1.2082s1.2082-1.8228 1.2082-2.9168v-.6875c-.0065-.83705-.2611-1.65338-.7315-2.34578.2404-.62203.3383-1.29006.2864-1.95491s-.2522-1.3096-.5862-1.88681c-.7505-.00043-1.489.18832-2.1473.54881-.6582.36049-1.215.88108-1.6189 1.51368z"/></g></svg>

<svg width="22" height="22" viewBox="0 0 22 22" fill="none" xmlns="http://www.w3.org/2000/svg">
<path d="M7.21875 20.625C7.76576 20.625 8.29036 20.4077 8.67716 20.0209C9.06395 19.6341 9.28125 19.1095 9.28125 18.5625V14.4375" stroke="#939BA1" stroke-width="1.5" stroke-linecap="round" stroke-linejoin="round"/>
<path d="M14.7812 20.625C14.2342 20.625 13.7096 20.4077 13.3228 20.0209C12.936 19.6341 12.7188 19.1095 12.7188 18.5625V14.4375" stroke="#939BA1" stroke-width="1.5" stroke-linecap="round" stroke-linejoin="round"/>
<path d="M13.0625 14.4375H14.4375C14.9845 14.4375 15.5091 14.6548 15.8959 15.0416C16.2827 15.4284 16.5 15.953 16.5 16.5V17.1875C16.5 17.7345 16.7173 18.2591 17.1041 18.6459C17.4909 19.0327 18.0155 19.25 18.5625 19.25" stroke="#939BA1" stroke-width="1.5" stroke-linecap="round" stroke-linejoin="round"/>
<path d="M8.9375 14.4375H7.5625C7.01549 14.4375 6.49089 14.6548 6.10409 15.0416C5.7173 15.4284 5.5 15.953 5.5 16.5V17.1875C5.5 17.7345 5.2827 18.2591 4.89591 18.6459C4.50911 19.0327 3.98451 19.25 3.4375 19.25" stroke="#939BA1" stroke-width="1.5" stroke-linecap="round" stroke-linejoin="round"/>
<path d="M9.60996 5.49994C9.2061 4.86736 8.64931 4.34678 7.99104 3.9863C7.33277 3.62582 6.59426 3.43707 5.84375 3.4375C5.50976 4.01471 5.30945 4.65946 5.25757 5.32431C5.20569 5.98916 5.30356 6.65719 5.54396 7.27922C5.07357 7.97162 4.81902 8.78795 4.8125 9.625V10.3125C4.8125 11.4065 5.2471 12.4557 6.02068 13.2293C6.79427 14.0029 7.84348 14.4375 8.9375 14.4375H13.0625C14.1565 14.4375 15.2057 14.0029 15.9793 13.2293C16.7529 12.4557 17.1875 11.4065 17.1875 10.3125V9.625C17.181 8.78795 16.9264 7.97162 16.456 7.27922C16.6964 6.65719 16.7943 5.98916 16.7424 5.32431C16.6905 4.65946 16.4902 4.01471 16.1562 3.4375C15.4057 3.43707 14.6672 3.62582 14.0089 3.98631C13.3507 4.3468 12.7939 4.86739 12.39 5.49999L9.60996 5.49994Z" stroke="#939BA1" stroke-width="1.5" stroke-linecap="round" stroke-linejoin="round"/>
</svg>
